X: 1
T: It's a Small World
C: R.Sherman
S: Nils Lundin (handwritten MS)
Z: John Chambers <jc@trillian.mit.edu>
M: C|
L: 1/4
K: G
B,C \
| "G"D2 B2 | G2 AG | "D7"G2 F2 | F2 A,B, \
| "D7"C2 A2 | F2 GF | "G"E2 D2 | D2 B,C |
| "G"D2 GA | B2 AG | "C"E2 AB | "Am"c2 BA \
| "D7"D2 c2 | B2 A2 | "G"G4- | Gz !fine!z2 |]
"verse"\
[| "G"G3 G | B2 G2 | "D7"A3 A | A4 \
| "D7"A3 A | c2 A2 | "G"B3 B | B4 |
| "G"B3 B | "G7"d2 B2 | "C"c3 c | "Am"c2 BA \
| "D7"D4 | F4 | "G"G4- | Gz |]
